configs/network-logos/lycan-logo-light.svg

<svg width="124" height="28" viewBox="0 0 124 28" fill="none" xmlns="http://www.w3.org/2000/svg">
<g clip-path="url(#clip0_240_40)">
<path d="M47.4755 27.5143L49.1122 23.8751H42.4064V0.119934H38.6934V27.5143H47.4755ZM63.1238 27.5143V16.2367L67.2754 0.119934H63.4831L61.1678 9.43804L58.8923 0.119934H55.1001C56.4977 5.27895 57.8944 11.1977 59.2916 16.3563L59.3315 27.514L63.1238 27.5143ZM84.8796 16.8762L82.8044 18.1959L81.0878 19.2758V23.4349C81.0878 24.0347 80.7285 24.4346 80.0898 24.4346C79.5709 24.4346 79.0919 24.1942 79.0519 23.5948V4.23914C79.0519 3.71924 79.491 3.39932 80.0898 3.39932C80.5689 3.39932 81.0479 3.63975 81.0878 4.23914V10.8371C81.7265 10.4771 83.004 9.79728 84.8802 8.71758V3.79929C84.8802 1.87963 83.0839 0 81.048 0H79.2511C77.1759 0 75.2593 1.59974 75.2593 3.79929V23.8751C75.2593 25.9946 77.0955 27.7143 79.2511 27.7143H81.0076C83.0829 27.7143 84.8798 26.1146 84.8798 23.8751L84.8796 16.8762ZM105.478 27.514C104.001 18.3559 102.564 9.35771 101.127 0.119652H97.6138L93.2627 27.5143H97.0549C97.3343 25.2747 97.6138 23.4752 97.9332 21.3555H100.807L101.725 27.5143L105.478 27.514ZM99.3304 10.2779L100.328 17.7964H98.3722L99.3304 10.2779ZM124 27.5143V0.119934H120.208V13.7172L117.493 0.119934H113.861V27.5143H117.574V14.0771L120.288 27.5145L124 27.5143Z" fill="#152024"/>
<mask id="mask0_240_40" style="mask-type:luminance" maskUnits="userSpaceOnUse" x="0" y="0" width="30" height="28">
<path d="M29.739 0H0V28H29.739V0Z" fill="white"/>
</mask>
<g mask="url(#mask0_240_40)">
<path d="M14.2404 17.1864V27.7666C14.2404 27.786 14.2404 27.8054 14.2404 27.8248C14.2394 28.0101 14.2151 28.028 14.0368 27.9703C13.6415 27.8426 13.2466 27.7143 12.8522 27.5855C12.3661 27.4269 11.8809 27.266 11.3939 27.1108C11.3519 27.102 11.3132 27.0813 11.2825 27.0512C11.2518 27.0212 11.2303 26.983 11.2205 26.9411C11.0464 26.3175 10.8676 25.6955 10.6881 25.0732C10.4998 24.4181 10.3094 23.7637 10.1213 23.1084C9.96392 22.5604 9.81074 22.0112 9.65234 21.4633C9.41023 20.6224 9.16473 19.7824 8.92318 18.9414C8.74699 18.3283 8.57645 17.7137 8.40083 17.1006C8.16083 16.2641 7.91604 15.429 7.67604 14.5925C7.49731 13.9702 7.32508 13.3455 7.14593 12.7231C6.89068 11.8356 6.63092 10.9495 6.37469 10.0623C6.07964 9.04063 5.7859 8.01855 5.49348 6.99609C5.47829 6.93512 5.47154 6.87235 5.47343 6.80954C5.4724 4.61018 5.4724 2.41077 5.47343 0.211313C5.47809 0.160281 5.48755 0.109802 5.50167 0.0605469C5.55477 0.0732227 5.60598 0.0928128 5.654 0.118817C7.42536 1.40547 9.19583 2.69335 10.9654 3.98246C11.9895 4.72733 13.0146 5.47093 14.0406 6.21326C14.107 6.25391 14.1612 6.31193 14.1972 6.38108C14.2332 6.45023 14.2497 6.5279 14.2449 6.60574C14.2387 10.1321 14.2372 13.6589 14.2404 17.1861" fill="#152024"/>
<path d="M24.25 -0.000346849C24.2545 0.092574 24.2598 0.14943 24.2598 0.206285C24.2598 2.40103 24.2661 4.59577 24.2521 6.79037C24.2281 7.05929 24.1694 7.32396 24.0774 7.57772C23.9088 8.18234 23.7294 8.78385 23.555 9.38678C23.3769 10.0034 23.1993 10.6203 23.0224 11.2373C22.8177 11.9524 22.6158 12.6681 22.4102 13.3829C22.1969 14.125 21.979 14.8657 21.7663 15.6081C21.5244 16.4531 21.2876 17.2998 21.0455 18.1448C20.7632 19.1288 20.4766 20.1107 20.1942 21.0952C19.8959 22.1348 19.599 23.1749 19.3036 24.2154C19.0472 25.1113 18.788 26.0066 18.5336 26.9026C18.5217 26.9514 18.4967 26.9961 18.4612 27.0317C18.4257 27.0672 18.3812 27.0923 18.3324 27.1042C17.4594 27.3855 16.5868 27.6684 15.7147 27.9528C15.5355 28.0113 15.5103 27.9965 15.5065 27.8125C15.5052 27.7544 15.5058 27.6963 15.5058 27.6382C15.5058 20.6326 15.5043 13.627 15.5013 6.62136C15.4949 6.53442 15.5123 6.44737 15.5518 6.36966C15.5912 6.29195 15.6511 6.22654 15.7251 6.18051C17.9226 4.59223 20.1169 2.99933 22.308 1.40181C22.9104 0.964125 23.5123 0.526252 24.1139 0.0881896C24.1478 0.0635804 24.1845 0.0422242 24.25 -0.000488281" fill="#152024"/>
<path d="M20.582 24.2444L25.1633 8.20601L25.2367 8.16357C25.2514 8.20909 25.2715 8.25268 25.2966 8.29341C26.7554 10.1313 28.2151 11.9681 29.6757 13.804C29.7074 13.8391 29.7287 13.8825 29.7371 13.9291C29.7455 13.9757 29.7407 14.0238 29.7232 14.0678C29.5634 14.5996 29.4189 15.136 29.2672 15.6704C29.1091 16.2276 28.9479 16.7841 28.7899 17.3414C28.6924 17.6853 28.5947 18.0292 28.5045 18.375C28.4715 18.5253 28.3832 18.6577 28.2571 18.7458C27.2755 19.4507 26.3012 20.1655 25.3238 20.8763C24.1314 21.7438 22.9388 22.6107 21.746 23.477C21.4176 23.7156 21.0892 23.9542 20.7608 24.1926C20.72 24.2222 20.6749 24.2459 20.6319 24.2725L20.5822 24.2455" fill="#152024"/>
<path d="M9.12639 24.2948C9.06611 24.2569 9.01345 24.2281 8.96503 24.193C7.441 23.085 5.91726 21.9767 4.3938 20.8679C3.40134 20.146 2.40963 19.423 1.41868 18.6989C1.34821 18.6433 1.29654 18.5673 1.27073 18.4813C1.01168 17.5801 0.761091 16.6763 0.505847 15.7743C0.344155 15.2024 0.179828 14.6314 0.0128654 14.0611C-0.00107062 14.0205 -0.00374322 13.9768 0.00513254 13.9348C0.0140083 13.8928 0.0340997 13.854 0.0632647 13.8225C1.24414 12.3395 2.42352 10.8554 3.60138 9.37009C3.86001 9.04441 4.11841 8.7186 4.37657 8.39265C4.42387 8.33325 4.47412 8.27611 4.52269 8.21826C4.63563 8.31132 9.12964 24.1011 9.12639 24.295" fill="#152024"/>
</g>
</g>
<defs>
<clipPath id="clip0_240_40">
<rect width="124" height="28" fill="white"/>
</clipPath>
</defs>
</svg>

<svg xmlns="http://www.w3.org/2000/svg" fill="none" viewBox="0 0 124 28">
  <g clip-path="url(#lycan-logo-light_svg__a)">
    <path fill="#152024" d="m47.475 27.514 1.637-3.639h-6.706V.12h-3.713v27.394h8.782Zm15.649 0V16.237L67.275.12h-3.792l-2.315 9.318L58.892.12H55.1c1.398 5.159 2.794 11.078 4.192 16.236l.04 11.158h3.792ZM84.88 16.876l-2.076 1.32-1.716 1.08v4.159c0 .6-.36 1-.998 1-.52 0-.998-.24-1.038-.84V4.239c0-.52.439-.84 1.038-.84.479 0 .958.24.998.84v6.598c.639-.36 1.916-1.04 3.792-2.12V3.8c0-1.92-1.796-3.8-3.832-3.8h-1.797c-2.075 0-3.992 1.6-3.992 3.8v20.075c0 2.12 1.837 3.84 3.992 3.84h1.757c2.075 0 3.872-1.6 3.872-3.84v-6.999Zm20.598 10.638A4927.45 4927.45 0 0 1 101.127.12h-3.513l-4.351 27.394h3.792c.28-2.24.559-4.039.878-6.159h2.874l.918 6.16 3.753-.001ZM99.33 10.278l.998 7.518h-1.956l.958-7.518ZM124 27.514V.12h-3.792v13.597L117.493.12h-3.632v27.394h3.713V14.077l2.714 13.438H124Z"/>
    <mask id="lycan-logo-light_svg__b" width="30" height="28" x="0" y="0" maskUnits="userSpaceOnUse" style="mask-type:luminance">
      <path fill="#fff" d="M29.739 0H0v28h29.739V0Z"/>
    </mask>
    <g fill="#152024" mask="url(#lycan-logo-light_svg__b)">
      <path d="M14.24 17.186v10.639c0 .185-.025.203-.203.145-.396-.127-.79-.256-1.185-.384-.486-.16-.971-.32-1.458-.475a.225.225 0 0 1-.174-.17c-.174-.623-.352-1.245-.532-1.868l-.567-1.965c-.157-.548-.31-1.097-.469-1.645-.242-.84-.487-1.68-.729-2.522-.176-.613-.347-1.227-.522-1.84-.24-.837-.485-1.672-.725-2.508-.179-.623-.35-1.248-.53-1.87-.255-.887-.515-1.774-.771-2.66-.295-1.022-.59-2.044-.882-3.067a.686.686 0 0 1-.02-.186V.21a.817.817 0 0 1 .029-.15.624.624 0 0 1 .152.058 4730.29 4730.29 0 0 1 5.311 3.863c1.024.745 2.05 1.489 3.076 2.231a.43.43 0 0 1 .204.393c-.006 3.526-.008 7.053-.005 10.58M24.25 0c.005.093.01.15.01.206 0 2.195.006 4.39-.008 6.584a3.125 3.125 0 0 1-.175.788c-.168.604-.348 1.206-.522 1.809a982.31 982.31 0 0 0-.533 1.85c-.204.715-.406 1.431-.612 2.146-.213.742-.431 1.483-.644 2.225-.242.845-.478 1.692-.72 2.537-.283.984-.57 1.966-.852 2.95-.298 1.04-.595 2.08-.89 3.12-.257.896-.516 1.792-.77 2.688a.275.275 0 0 1-.202.201c-.873.282-1.745.564-2.617.849-.18.058-.205.044-.208-.14-.002-.059-.001-.117-.001-.175 0-7.005-.002-14.011-.005-21.017a.478.478 0 0 1 .224-.44c2.198-1.589 4.392-3.182 6.583-4.78L24.114.089c.034-.024.07-.046.136-.088m-3.668 24.243 4.581-16.038.074-.042a.588.588 0 0 0 .06.13 6238.21 6238.21 0 0 0 4.379 5.51.254.254 0 0 1 .047.264c-.16.532-.304 1.068-.456 1.602-.158.558-.32 1.114-.477 1.671-.098.344-.195.688-.285 1.034a.613.613 0 0 1-.248.37c-.982.706-1.956 1.42-2.933 2.131a4031.85 4031.85 0 0 1-3.578 2.601l-.985.716c-.041.03-.086.053-.13.08l-.049-.027m-11.456.049c-.06-.038-.113-.067-.161-.102a10843.324 10843.324 0 0 1-7.546-5.494.437.437 0 0 1-.148-.218c-.26-.9-.51-1.805-.765-2.707a192.35 192.35 0 0 0-.493-1.713.238.238 0 0 1 .05-.239 2838.65 2838.65 0 0 0 4.314-5.43c.047-.059.097-.116.146-.174.113.093 4.607 15.883 4.603 16.077"/>
    </g>
  </g>
  <defs>
    <clipPath id="lycan-logo-light_svg__a">
      <path fill="#fff" d="M0 0h124v28H0z"/>
    </clipPath>
  </defs>
</svg>
